docs/local/img/index-like/icon1.svg

<svg width="45" height="45" viewBox="0 0 45 45" fill="none" xmlns="http://www.w3.org/2000/svg">
<g clip-path="url(#clip0_2351_1698)">
<path d="M14.0714 0H1.60679C0.720861 0 0 0.699697 0 1.55962V27.2234C0 27.5926 0.308229 27.8918 0.688626 27.8918C1.06902 27.8918 1.37725 27.5926 1.37725 27.2234V1.55962C1.37725 1.43886 1.48238 1.33682 1.60679 1.33682H14.0713C14.1957 1.33682 14.3009 1.43886 14.3009 1.55962V38.0774C14.3009 41.1574 11.7192 43.6632 8.54602 43.6632H7.132C3.9588 43.6632 1.37725 41.1574 1.37725 38.0774V30.0159C1.37725 29.6467 1.06902 29.3475 0.688626 29.3475C0.308229 29.3475 0 29.6467 0 30.0159V38.0774C0 41.8946 3.19937 45 7.132 45H8.54611C12.4787 45 15.6782 41.8946 15.6782 38.0774V1.55962C15.6782 0.699697 14.9573 0 14.0714 0Z" fill="#D2286F"/>
<path d="M8.28898 35.6944C7.00962 35.4533 5.76638 36.2674 5.51773 37.5093C5.26926 38.7511 6.10793 39.9579 7.38748 40.1991C7.53896 40.2278 7.69 40.2415 7.83895 40.2415C8.94737 40.2415 9.93951 39.4791 10.1587 38.3844V38.3843C10.4072 37.1423 9.56853 35.9356 8.28898 35.6944ZM8.80683 38.1294C8.70297 38.6476 8.18422 38.9877 7.65025 38.8869C7.11628 38.7861 6.76613 38.2824 6.86981 37.7642C6.96126 37.3072 7.37534 36.989 7.83805 36.989C7.90007 36.989 7.96319 36.9947 8.02648 37.0067C8.56036 37.1074 8.91051 37.6111 8.80683 38.1294Z" fill="#D2286F"/>
<path d="M14.7494 7.85767H0.688626C0.308229 7.85767 0 8.15685 0 8.52607C0 8.8953 0.308229 9.19448 0.688626 9.19448H14.7494C15.1297 9.19448 15.438 8.8953 15.438 8.52607C15.438 8.15685 15.1298 7.85767 14.7494 7.85767Z" fill="#D2286F"/>
<path d="M14.7494 15.7151H0.688626C0.308229 15.7151 0 16.0143 0 16.3835C0 16.7527 0.308229 17.0519 0.688626 17.0519H14.7494C15.1297 17.0519 15.438 16.7527 15.438 16.3835C15.438 16.0143 15.1298 15.7151 14.7494 15.7151Z" fill="#D2286F"/>
<path d="M14.7494 23.5728H0.688626C0.308229 23.5728 0 23.8719 0 24.2412C0 24.6104 0.308229 24.9096 0.688626 24.9096H14.7494C15.1297 24.9096 15.438 24.6104 15.438 24.2412C15.438 23.8719 15.1298 23.5728 14.7494 23.5728Z" fill="#D2286F"/>
<path d="M14.7494 31.4302H0.688626C0.308229 31.4302 0 31.7294 0 32.0986C0 32.4678 0.308229 32.767 0.688626 32.767H14.7494C15.1297 32.767 15.438 32.4678 15.438 32.0986C15.438 31.7294 15.1298 31.4302 14.7494 31.4302Z" fill="#D2286F"/>
<path d="M33.4029 8.79924C33.3331 8.55016 33.1677 8.34256 32.9376 8.21494L21.5862 1.91292C21.2144 1.70673 20.7814 1.65338 20.3666 1.76289C19.9517 1.87258 19.6061 2.13168 19.3936 2.49247L14.3912 10.9818C14.2025 11.3022 14.317 11.7106 14.6471 11.8939C14.9771 12.0771 15.398 11.9658 15.5868 11.6455L20.5891 3.15613C20.6295 3.08758 20.6937 3.062 20.7283 3.05286C20.763 3.04372 20.8318 3.03405 20.9024 3.07334L31.9224 9.19132L14.0725 39.6815C13.8845 40.0024 14.0003 40.4106 14.3309 40.5929C14.4383 40.6521 14.5551 40.6802 14.6705 40.6802C14.9103 40.6802 15.143 40.5587 15.2698 40.342L33.3069 9.53198C33.4387 9.30848 33.4728 9.04823 33.4029 8.79924Z" fill="#D2286F"/>
<path d="M29.2147 15.2L16.7703 8.29116C16.4401 8.10799 16.0195 8.219 15.8307 8.53954C15.6419 8.8599 15.7565 9.26833 16.0866 9.45158L28.5309 16.3604C28.6389 16.4202 28.7562 16.4486 28.8722 16.4486C29.1112 16.4486 29.3435 16.3278 29.4706 16.112C29.6594 15.7917 29.5448 15.3833 29.2147 15.2Z" fill="#D2286F"/>
<path d="M25.1958 22.0207L15.3314 16.5444C15.0012 16.3611 14.5805 16.4723 14.3917 16.7927C14.203 17.1131 14.3175 17.5215 14.6476 17.7048L24.5121 23.1811C24.6199 23.2409 24.7373 23.2694 24.8533 23.2694C25.0922 23.2694 25.3246 23.1485 25.4517 22.9328C25.6405 22.6124 25.5259 22.2041 25.1958 22.0207Z" fill="#D2286F"/>
<path d="M21.1765 28.8414L15.3314 25.5963C15.0012 25.4132 14.5805 25.5242 14.3917 25.8447C14.203 26.165 14.3175 26.5734 14.6476 26.7567L20.4928 30.0018C20.6006 30.0616 20.718 30.09 20.834 30.09C21.073 30.09 21.3054 29.9691 21.4324 29.7534C21.6212 29.4331 21.5066 29.0246 21.1765 28.8414Z" fill="#D2286F"/>
<path d="M17.1572 35.6619L15.3665 34.6678C15.0364 34.4847 14.6157 34.5957 14.4269 34.9162C14.2381 35.2365 14.3527 35.645 14.6828 35.8282L16.4735 36.8224C16.5813 36.8821 16.6988 36.9106 16.8148 36.9106C17.0536 36.9106 17.2861 36.7898 17.4131 36.574C17.6018 36.2536 17.4874 35.8453 17.1572 35.6619Z" fill="#D2286F"/>
<path d="M44.8764 25.1079L41.3296 18.8652C41.146 18.5419 40.7273 18.4245 40.3941 18.6028C40.061 18.781 39.94 19.1876 40.1237 19.5109L43.4862 25.4292L12.4682 42.1778C12.1359 42.3571 12.0163 42.7642 12.2012 43.0868C12.3272 43.3064 12.5618 43.4303 12.8037 43.4303C12.9169 43.4303 13.0319 43.4032 13.1379 43.3459L44.4861 26.419C44.966 26.1619 45.141 25.5739 44.8764 25.1079Z" fill="#D2286F"/>
<path d="M39.9948 16.5148L38.5619 13.9927C38.355 13.6289 38.0137 13.3645 37.6008 13.2487C37.1874 13.1327 36.7537 13.1794 36.3788 13.3802L26.4318 18.7046C26.0988 18.8828 25.9778 19.2893 26.1614 19.6126C26.2869 19.8336 26.5222 19.9583 26.765 19.9583C26.8775 19.9583 26.9916 19.9317 27.0972 19.8751L37.0442 14.5508C37.1152 14.5125 37.1839 14.5232 37.2184 14.5328C37.2529 14.5427 37.3167 14.5692 37.356 14.6384L38.789 17.1605C38.9726 17.4837 39.3913 17.6011 39.7245 17.4229C40.0575 17.2447 40.1784 16.8381 39.9948 16.5148Z" fill="#D2286F"/>
<path d="M37.9524 29.1921L31.0295 17.0069C30.8458 16.6837 30.4271 16.566 30.0939 16.7444C29.7609 16.9227 29.6399 17.3292 29.8235 17.6525L36.7465 29.8378C36.872 30.0587 37.1072 30.1834 37.3501 30.1834C37.4625 30.1834 37.5766 30.1566 37.682 30.1002C38.015 29.9219 38.136 29.5155 37.9524 29.1921Z" fill="#D2286F"/>
<path d="M30.8636 32.9866L25.1393 22.9112C24.9557 22.588 24.537 22.4703 24.2038 22.6487C23.8708 22.827 23.7498 23.2335 23.9334 23.5568L29.6576 33.6322C29.7832 33.8532 30.0184 33.9779 30.2613 33.9779C30.3737 33.9779 30.4878 33.9512 30.5932 33.8947C30.9262 33.7164 31.0472 33.3099 30.8636 32.9866Z" fill="#D2286F"/>
<path d="M23.7748 36.7809L20.3854 30.8153C20.2018 30.4921 19.7831 30.3743 19.4499 30.5528C19.1168 30.7311 18.9959 31.1376 19.1795 31.4609L22.5688 37.4266C22.6943 37.6475 22.9296 37.7722 23.1724 37.7722C23.2849 37.7722 23.399 37.7455 23.5044 37.689C23.8374 37.5108 23.9584 37.1043 23.7748 36.7809Z" fill="#D2286F"/>
<path d="M16.6862 40.5754L15.6789 38.8025C15.4952 38.4793 15.0764 38.3617 14.7433 38.5401C14.4103 38.7183 14.2893 39.1249 14.473 39.4482L15.4802 41.221C15.6057 41.442 15.841 41.5667 16.0838 41.5667C16.1963 41.5667 16.3104 41.54 16.4158 41.4835C16.7487 41.3051 16.8698 40.8986 16.6862 40.5754Z" fill="#D2286F"/>
</g>
<defs>
<clipPath id="clip0_2351_1698">
<rect width="45" height="45" fill="white"/>
</clipPath>
</defs>
</svg>

<svg width="45" height="45" viewBox="0 0 45 45" fill="none" xmlns="http://www.w3.org/2000/svg"><g clip-path="url(#clip0_2351_1698)" fill="#D2286F"><path d="M14.071 0H1.607C.72 0 0 .7 0 1.56v25.663c0 .37.308.669.689.669.38 0 .688-.3.688-.669V1.56a.23.23 0 01.23-.223H14.07a.23.23 0 01.23.223v36.517c0 3.08-2.582 5.586-5.755 5.586H7.132c-3.173 0-5.755-2.506-5.755-5.586v-8.061a.679.679 0 00-.688-.668.679.679 0 00-.689.668v8.061C0 41.895 3.2 45 7.132 45h1.414c3.933 0 7.132-3.105 7.132-6.923V1.56c0-.86-.72-1.56-1.607-1.56z"/><path d="M8.289 35.694c-1.28-.24-2.523.573-2.771 1.815-.249 1.242.59 2.449 1.87 2.69.151.029.302.043.45.043 1.11 0 2.102-.763 2.32-1.858.25-1.242-.59-2.448-1.869-2.69zm.518 2.435c-.104.519-.623.859-1.157.758a.96.96 0 01-.78-1.123.981.981 0 011.156-.757.96.96 0 01.78 1.122zM14.75 7.858H.688a.679.679 0 00-.689.668c0 .37.308.668.689.668h14.06c.38 0 .689-.299.689-.668a.679.679 0 00-.689-.668zm0 7.857H.688a.68.68 0 00-.689.669c0 .369.308.668.689.668h14.06c.38 0 .689-.3.689-.668a.679.679 0 00-.689-.669zm0 7.858H.688a.679.679 0 00-.689.668c0 .37.308.669.689.669h14.06c.38 0 .689-.3.689-.669a.679.679 0 00-.689-.668zm0 7.857H.688a.68.68 0 00-.689.669c0 .369.308.668.689.668h14.06c.38 0 .689-.3.689-.668a.679.679 0 00-.689-.669z"/><path d="M33.403 8.8a.963.963 0 00-.465-.585L21.586 1.913a1.64 1.64 0 00-1.22-.15 1.59 1.59 0 00-.972.73l-5.003 8.489a.658.658 0 00.256.912.7.7 0 00.94-.248l5.002-8.49a.228.228 0 01.14-.103.235.235 0 01.173.02l11.02 6.118-17.85 30.49a.658.658 0 00.259.912.702.702 0 00.939-.251l18.037-30.81a.934.934 0 00.096-.733z"/><path d="M29.215 15.2L16.77 8.291a.7.7 0 00-.94.249.658.658 0 00.257.912L28.53 16.36a.703.703 0 00.94-.248.658.658 0 00-.256-.912zm-4.019 6.82l-9.865-5.476a.7.7 0 00-.94.249.658.658 0 00.257.912l9.864 5.476a.702.702 0 00.94-.248.658.658 0 00-.256-.912zm-4.019 6.821l-5.846-3.245a.7.7 0 00-.94.249.658.658 0 00.257.912l5.845 3.245a.702.702 0 00.94-.249.658.658 0 00-.256-.912zm-4.02 6.821l-1.79-.994a.7.7 0 00-.94.248.658.658 0 00.256.912l1.79.994a.703.703 0 00.94-.248.658.658 0 00-.256-.912zm27.719-10.554l-3.546-6.243a.7.7 0 00-.936-.262.658.658 0 00-.27.908l3.362 5.918-31.018 16.749a.658.658 0 00-.267.909.702.702 0 00.937.26l31.348-16.928a.952.952 0 00.39-1.311zm-4.881-8.593l-1.433-2.522a1.589 1.589 0 00-.961-.744 1.638 1.638 0 00-1.222.131l-9.947 5.325a.658.658 0 00-.27.908.701.701 0 00.936.262l9.946-5.324a.234.234 0 01.174-.018.23.23 0 01.138.105l1.433 2.522a.7.7 0 00.935.263.658.658 0 00.27-.908z"/><path d="M37.952 29.192L31.03 17.007a.7.7 0 00-.936-.263.658.658 0 00-.27.909l6.922 12.185a.702.702 0 00.936.262.658.658 0 00.27-.908zm-7.088 3.795L25.139 22.91a.7.7 0 00-.935-.262.658.658 0 00-.27.908l5.724 10.075a.701.701 0 00.936.263.658.658 0 00.27-.908zm-7.089 3.793l-3.39-5.965a.7.7 0 00-.935-.262.658.658 0 00-.27.908l3.389 5.966a.701.701 0 00.936.262.658.658 0 00.27-.908zm-7.089 3.795l-1.007-1.773a.7.7 0 00-.936-.262.658.658 0 00-.27.908l1.007 1.773a.701.701 0 00.936.263.658.658 0 00.27-.909z"/></g><defs><clipPath id="clip0_2351_1698"><path fill="#fff" d="M0 0h45v45H0z"/></clipPath></defs></svg>
